-----BEGIN PGP MESSAGE-----

hF4DiKjB+TvL2DYSAQdAJXJ8Hi9yDxMXuioAGJfaLEm9MpCro/q0LPxNMeeecHAw
VLVcHGufWLAAewyzjtabpeAanBAZu5FD+KD374oxMATYpEW6G7AbNYlRJVDzZSwl
hF4DPGGuLjCr0CcSAQdAnoM6Q1eoBgw4Iqnta8+sQitqdWPX1vtPumu7f+VZbFIw
nnUJUtW9s7Ka6XWZDIvvcumrsg+lu4cXWOKitAslMEBgWDn8wQRU5Du+atuSHgoz
hF4D9M59fCWyVkASAQdA0hQ9EsgVJCpFZqnQYfZoBLlDrXPuUwy+i1MwIgam4SMw
9xGV07XgJhcMMUk89XoeYOACvJf3fCAXctuyuWPQ5ZqQ3HlLz7bnMVQAtH1gGPbA
0uoBjGSxFPbwLg9h6YvGDjK0wbWbClHbSKXHPrQLm1LX7IFkJaOKvtLbL7nevu8y
m46RHr5ADETi6iIxMM9cI41y3IKulRcSMnpWg/b5Xv1iAIBMRvYz2XVxp86+KN6R
zU1B/ZHsyUIOQU0CoX73aZKsR1w6dFyrv1PL3rRn2k0Nltem7lqr/0rPzwNoFiMt
Cg1elcB7YoEmr5l0EY6ODYDTGozBZq6tlkK3z54ovv0J+UodyiiqnNemPU4OvUtr
3Spis1RtCpCURIxzSC/PnK1MiyU+s+VOszmshUKzh0Z3wUg/FoRswe1ffji8tq6f
OpkDfsk/zN90fxI775mfIlyXSrlT53IYtI0f4vbFdgX8hZSJHqVo1KdDUEH5GQR7
TwwViLzmRVAWFPGqwq+IOaKfEFioiWG0wyTpnE2P63XTExuylZ1NfDoXofgY0j6z
slFxAjN8/J8bg/Ux9MSHEzYJPeSZ7J3x0AVVpV3PO2vlSBBf+T6deOldx9i2H75h
AmGUZ6O4E+UnvUs8P6rKs12Zgt8m4ZiirYu9wl1+/gsuQGiggOw+JzMCyDM/vEkg
PXgNaSfHtWao7w21yaYHrwkdxgHlVAjd9BAHXK54SMGTHJXr7/gQoboU2p6uslFK
h/u8HFPO04UeXFn/brbHRDTY5UniTZfZHrAcpgAVqWwK66jTKaAkmtcQWTmzdLwo
/uks6KtlbQVVnMi+wwm0cCDGAbKT1U2DvRzpFcpc5FQVeOgGZB6cIrvyLw2xUGWv
MtckPqoRzJC5M3rO+NQBpvgWaQLHShEPxxdaoGJtX64P6Xxt6HhphjsR3vDOQGNW
spTsIf1XpGoMLcoy+mnpH07Zoymaaq0PzLIRPU7dVZuofgpz8AnJzgnMyNlBxgEO
nrBPG6zoJeMJ3K/gelTgsoGJueKbW9XWdhhFNnZ7t7H8BwqWwbewkopYzMOZ4Lqc
tcOJF7KGug7vGgW6t2bdFBnnqGUkTDrTHjUGl4GLeFnu5E5ov5w0av7teArK1vZ3
mvM0LI0X8xFjeBqs+lih5gQC9voAfENnW0dnVxO7Insn813CBNpxKCVvU6/qlepb
i58zoGUhLt3Y6R3CvqxYA7Ij9j0IysHrXpGzUEdT69gNdudA4WaYroa8nQxb8+Xf
ea44DBNJKo46DivpKxiT3UG2IvJNusHQRXI0BjJocEW5ypXVeFtFo8HIdeQ5Lp68
VhADIig81j3dZJoX/k73lebVv/eoDHZK+APFDm2sWqbjHo4c156bU0uKPs+f/vCl
CK1GMeH88toNo3dbtAe+KBfh4aNQzbkrXltLtv9ThISNzssDyVKA0tKDrGadc+8B
9ZzchMYedvUGKID6sYjW/iw76gYSMUgZD5gtOiT8/wXMDLwhyYh40AogIXftVCMt
wizsJKqrhNbtxCeTivcjkKYh11yf7wmlDwHTT6Iq+bgijoffMDD1+r8DSvFsbqHJ
kbLriTe4YIIJZ6cOcxJScw0Rph2NvrqvaGpDs7xGLLX/1WLv2Y2cGw29yWaij3D9
oECph/EDVw7WrlmIcTdxmXJ5dc8U0V/9juomyicEjTTjIUB92Pf8r5vgm16f3bQB
jrGNdjxwhSOr0KlYZheHtWq2EzV5npg3/cnoVgEU2BxDS58BWeTHdDnwcWHhI8jc
hKPJeqZ1I6jDcGg6dW3AV+cOwLkSFl51oUCQLOo4IEo+LtPSljoocL7/i1JUrwXQ
h9h6BFPn+WhDJLB7txFrP5KEf/cZ60XaRFe7lxaVNRg/1I6Sw4KhBI/e8UsnL9pK
hgVfZnUcvXtanaU+MimVbff3/Hx9flSXBAhQ3B52ZynMKSrAM5FnRlP/iDaiXk14
jAYcynYVqS5xRCNigMRHAzp1KuevZybEvZhDiEdecnn2SNVVug+fdmSHKaCJR112
blO89Ih7uFhGfXLV4zDHV18PYBjqI96/rrHkU0lwbzP2YDHmI3CmTe3JvZGrcHVZ
VSU3v1/j3Q5cCMo54q3WXiE2tgqgHZgbttIniEllkDQIkzqCgv/WhqQa9wFGOFI+
oG+6NAskJ0QUcufVjjAMN5E2gLRQ2+oq5kKq8CmaLJbixy5lnETxG+hO/FoNtXsV
EeBJqc7wULgu6t4e66aAtMVYmGZlLKhN6I1kcM1YkGMRN5LuWap7oCJh2hXP++wg
gJIrn9rSUQcHL2t/r4eh4ap4DTHK5Z0AjoTRwvihDaiHwe1xO3CRLrzLWtNHux/4
MIzi3zY4NgOKjfeb5Ist7+RGjW0DqvrZAenCkAs7TkEBFrSpFbBdlhMQfQ2382jS
3GBAc0vGeZbbNQMByIAQFx9ugFG/y78mceMoX0ubwP9awJOpUws+ce7D3oWBXis/
QPyZYuNqgflJE+07WM1CmM+lshtbYw1pXB/gH6U09HENWbdsQfNarfE18qaQ5lWn
7RzXdQMvzpQcBhVMo9FYxgi0hFoaUG9X3v0uMjBVPv6vIRfZSPTVUAw/iuX6l9EH
TXKhSomj54fU9OT/n3q1MmF/fE00gYbTKl9YdFOBiGfu3opEqa4lOoDSleKLnPwR
6EHgPtF3Z6JTXWAidPXDIbSiQ+jAr268T5JtHTirDH5I6R5NjwXlc/Q5f4wHUR9e
/P4+XpVY+sQNOJIhRiNMdsXCBfUMNN0laIUz1apB4FHXQtxS7V8kQ5PWcCHmKjYn
AFyA8QJ7Nas3rdm/l5pF3dabS5+Hp6IuxY8BBuf/CyPdJtnrqdLsEEZNO17zEx0+
EQLEIDp9LkcrUaecGTK86XohQ42wbvapCQZDuN/llsrIHGc2pz+Ec9BAmp331N9F
MJBNjyKl+Z+A7zY8NY/8OfYAPyfylkwctL3ZrYHI9lkKVFTPF0MvudqrWpuaVLzl
v4gITldpuToemsImbb3FWerMzaKR/exqcu8SEZAinwXctuxge5kZtYwRFU2evpR9
nqJKFA33dK8mFqgYIV98vEo4Dr6J5VJES/liN0CJuY2kJjkAqQnKGhN/yOg508zh
H243VeRqEkN+nLXdF41qTJ7gusgIUPZzkBDJOt1njDCeSxrvFQGi9qA9gaAJSk4L
dZ9GRb/5O/zGVCMJmpa6DbSSEV1pR6N4IHqN99Tqyj/jVtXF2RaZAHZKe1jIYOAU
l9bdAJk6nPGhEhm5+cVUxB40ldKJPnieVwdWZO78WRTytuFZlwXbHzcMX0wZu0bO
NXpgjqC3V7YG+dPpoFaZvTsRAbtPrPCOG538vQfPnwnLsgxel0hQ+43kGFYKb69b
L/gkaMAZNzyFRhnCl1NjMgZXXoQYeUBKzmHuIu86c4ELqLN3huP8uLyCMDkkeIYP
rv1I9gz5vFN5oGpwlSZ7x4ZsNsZlJmhLQhl2XrzT2/HHsU2rwj2y8VVHZwP2TIHq
TDZSI45itaMqs5OVpwTKcyxrAcHmcrMt5oke8bfcAhGCwOxqgjTW/Xdsu2v9JidE
ycsEbI4mDVCPC1DBn6IuX2iMJE30FrOzfalFPuKjhU4VTLQFwpJQeOrouM8XKgsn
qGheD1QGL1OVEJR7guQ1z7PclJBXK8flolqTV0rHmdV+JWh3eMSstccCHRRyv6kg
DKm6GPORiTP8PakGdpeyNpZ8qQ5WrFi5JxxWDGZcklhXUls3cgXpCFVpoYm4dqq9
jc1lY7JcgMDZa+ZdTfBbFVR31Wzbf4AgmdiQAN7OTd7xHgilVNOxVDGs9RcWVGFy
0EEQOLyzQ3yEPjeNF6eg7lQIAorWhAOC8nCc3OG5d8aCsuhexHZz/FmRdKsGpw45
x0KVUKwfJZ2pSpsQXyT+S+PUvHoUQvJfC4aAAa38OG+3LA9YE2CTtjS6nugJ4JI7
yNV07/TelQ4CDyHXAr1QS4IL8nPzzsxwrlv0yRsoAxPmI6XgWLD7PO2lcf72o4H5
UMhztwSGnCfMqifzMmy9+jV60jj77k0NXZx0Wxcvu3LqMj1WzgEHeicQP06n04r4
Rv/U6l8/HS1b8vfLmWbOETLmKdE0Iv9CRAI4VQarlPZQYsd9Oe4LxHgbfCWFHIUM
0+NU6+rn7bvN1dDsvIpqOWteBdKbYdrCq+snJwfJSWsNOCbfPfHMKkvXfBPqoLf+
WMwbZ5a6ouhUA3yW93wct/R8qvxlxHvPU+OgA+5I9PR12seVS5kaIUpfZHGeNkQ3
wpKb0Mw0UP4X5PIItz3R87ov3dndKa5ODbGV+C4z24Lpo9e0N3cTKW2+jptUpSCW
zpXSmeSG6LWrKQ5qosFkpcoZNlsSnGRPg684jcRcOf0h3nrqjlAXIgDhAowOJRUo
Dgn1kDJ4JyCd6rq87mGBI//+t3w0Jy22iL1cFSN2yV8C0ADJHhLneyvLPrU42Fpd
+YoZ0O7gZ0YqyYhIsIGg/Vyo555n+1K9i0zX33W6eTwj8IMQJS4spIoWEHjHXe8g
yhMWPOPSuLpU08GWJ9eivcGv3hNdmWQy++otEAcwKDcNGYww3JfoWjuQ9FmJ1i9F
bjxCynz2oBjoPmjYQEuMUFKYmadPWIzTkK1rGCyNuv2XTV3XeU5RhrDIoHAM7FIG
0jsN8ABNKay6pThLV5ULeZJtsEbZz0OS6ie6Agl1x3Gx/8iRIVovw2sX3pV95AjP
CKwthtAIt+92gSYeCuAyFe850er2MCmpXB97Ebq0mNB7ATOvj9OMFHKFdyb16opm
MVY9qkHMZZ01ePqkfXKRdmg9EoSpHndlxABrKuYK9gKB246MG3KcN8UFmYXsXAPp
oa8xJd1pU4A5ZIDql3bgFpnz0UiDkkAjm6SYlcnGEYLTAWYmyv8m6XSbz7P5z9j0
0f7zoWEEVh/K5f2Nei6KhqN8BqgBcu8bTabL8BaIoAD1Z0jg+5DxT7rK1w/d8119
R8IweWXBlDczET2OqoAI9089HryUhCPugaC89OvYve/oj8Oi9/6wQ7MyAmyKL5V3
v0Gyh/p7x8DkWsYaV3DYFPY6jfJ0JsT+RRV79HZ5JCX21vtvYdJ254219Fy8Q1LM
Or6WU1tNOK5ZxWEog8MHrXd500ScH8YoH5IV6Z+l5ITubu27nLO13QUToY6PYo9+
WDZWI1cHpp6dNq9imr0Xfbkje2Q+1BR2NGW6ECSFN0zBSIv1FTdZZTFMzdZCrETs
tzjCLu7z/AIX+Ptsl4Uq4rt0LZiZtiIcfk3F78CWH8EUrdJk6J9Cf9ZPkrqPryhr
XKYKFa49sg+qXj3iKtWfpli8C1TB5dYDFbnwA5jhNtUNTC/8yOjlY6hroylzMUdG
yTBFxaGhPFnAdKeAgSG1VtqEmtcqs+uNH5DHgUU1t696WTUWTvl0HNGOqi5ZGg8u
P0dAsjJwrAwgNFVhbJgIcuRrzmyHfPZ38WIqlCpZvuXG45ocnVZNRlHv4r+cnx3T
EA3Qh8711wEJzggdHOZLoR09T6CiXSQeLWgEZwrplFWghaYR9wnxb4PfW0K8d3Yv
OBeb9uFe4uDTKqj5F1iB/5NEvvi7muFzhc4FB2NrAV3H2D3ODP3aPwRZ9wkr44uL
GPHug5oTYQT1HnGPb4DIWkKfYnMskX2PWXmP6X+6yXxMvrHSoM4Fgd6QmR8JcBm3
Rf6D8NnMyEWXJNj3jY57oRPqVTVtFGvCH4i29S2ZmKXd5gOWZ4/rPO4izOCiOwX0
jOGK2IVJZx0lX68Lj11d6SCw2HZvEux3Ik6HkGDef1qtWu04eUUY8AjBB4acrT19
EDSf7ohtKcGAQAAj+LH3KQ==
=CZ7f
-----END PGP MESSAGE-----
